%
(PROBOTIX LinuxCNC)
G0 G54 G17 G20 G90 G40 G49 G64 P0.010
 
o100 CALL [1]
(CHANGE NUMBER IN BRACKETS TO THE TOOL)
(NUMBER FOR YOUR ENGRAVING BIT)
 
G0 Z0.2000
G0 M3 M8 S24000
G0 X0.5845 Y0.6105
Z0.2000
G1   F47.2 Z-0.0100 
G1 X0.5801 Y0.6290 F70.9  
X0.5740 Y0.6468 
X0.5661 Y0.6639 
X0.5564 Y0.6803 
X0.5450 Y0.6960 
X0.5319 Y0.7109 
X0.5174 Y0.7246 
X0.5022 Y0.7365 
X0.4861 Y0.7465 
X0.4692 Y0.7547 
X0.4516 Y0.7611 
X0.4331 Y0.7657 
X0.4138 Y0.7684 
X0.3938 Y0.7693 
X0.3737 Y0.7684 
X0.3544 Y0.7657 
X0.3359 Y0.7611 
X0.3182 Y0.7547 
X0.3014 Y0.7465 
X0.2853 Y0.7365 
X0.2700 Y0.7246 
X0.2556 Y0.7109 
X0.2424 Y0.6960 
X0.2310 Y0.6803 
X0.2214 Y0.6639 
X0.2135 Y0.6468 
X0.2073 Y0.6290 
X0.2029 Y0.6105 
X0.2003 Y0.5913 
X0.1994 Y0.5713 
 Y0.3751 
X0.3938  
X0.4136 Y0.3760 
X0.4327 Y0.3787 
X0.4511 Y0.3833 
X0.4687 Y0.3896 
X0.4855 Y0.3978 
X0.5016 Y0.4077 
X0.5169 Y0.4195 
X0.5314 Y0.4331 
X0.5447 Y0.4479 
X0.5562 Y0.4634 
X0.5659 Y0.4797 
X0.5739 Y0.4966 
X0.5801 Y0.5142 
X0.5845 Y0.5326 
X0.5871 Y0.5516 
X0.5880 Y0.5713 
X0.5872 Y0.5913 
X0.5845 Y0.6105 
G0  
Z0.2000
G0 X0.7821 Y0.6490

G1   F47.2 Z-0.0100 
G1 X0.7852 Y0.6301 F70.9  
X0.7875 Y0.6109 
X0.7889 Y0.5913 
X0.7893 Y0.5713 
X0.7889 Y0.5513 
X0.7875 Y0.5316 
X0.7852 Y0.5123 
X0.7820 Y0.4934 
X0.7780 Y0.4748 
X0.7729 Y0.4567 
X0.7670 Y0.4389 
X0.7602 Y0.4215 
X0.7525 Y0.4045 
X0.7438 Y0.3879 
X0.7343 Y0.3717 
X0.7238 Y0.3558 
X0.7124 Y0.3403 
X0.7001 Y0.3252 
X0.6869 Y0.3105 
X0.6728 Y0.2962 
X0.6581 Y0.2825 
X0.6430 Y0.2697 
X0.6275 Y0.2578 
X0.6117 Y0.2467 
X0.5955 Y0.2366 
X0.5790 Y0.2273 
X0.5621 Y0.2189 
X0.5449 Y0.2114 
X0.5272 Y0.2048 
X0.5093 Y0.1991 
X0.4909 Y0.1942 
X0.4723 Y0.1902 
X0.4532 Y0.1871 
X0.4338 Y0.1849 
X0.4140 Y0.1836 
X0.3939 Y0.1832 
X0.1994  
 Y0.1768 
X0.1997 Y-0.0008 
X0.0000 Y-0.0004 
 Y0.5711 
X0.0005 Y0.5911 
X0.0018 Y0.6107 
X0.0041 Y0.6299 
X0.0072 Y0.6488 
X0.0113 Y0.6673 
X0.0163 Y0.6854 
X0.0222 Y0.7032 
X0.0290 Y0.7206 
X0.0367 Y0.7377 
X0.0453 Y0.7544 
X0.0548 Y0.7707 
X0.0652 Y0.7866 
X0.0766 Y0.8022 
X0.0888 Y0.8174 
X0.1019 Y0.8323 
X0.1160 Y0.8468 
X0.1306 Y0.8606 
X0.1457 Y0.8736 
X0.1611 Y0.8857 
X0.1768 Y0.8969 
X0.1930 Y0.9072 
X0.2095 Y0.9166 
X0.2263 Y0.9250 
X0.2435 Y0.9327 
X0.2611 Y0.9394 
X0.2790 Y0.9452 
X0.2973 Y0.9501 
X0.3160 Y0.9541 
X0.3350 Y0.9573 
X0.3544 Y0.9595 
X0.3741 Y0.9608 
X0.3942 Y0.9613 
X0.4143 Y0.9608 
X0.4341 Y0.9595 
X0.4535 Y0.9573 
X0.4725 Y0.9541 
X0.4912 Y0.9501 
X0.5095 Y0.9452 
X0.5274 Y0.9394 
X0.5450 Y0.9327 
X0.5623 Y0.9251 
X0.5791 Y0.9166 
X0.5957 Y0.9072 
X0.6118 Y0.8969 
X0.6276 Y0.8858 
X0.6431 Y0.8737 
X0.6582 Y0.8607 
X0.6729 Y0.8469 
X0.6870 Y0.8324 
X0.7002 Y0.8175 
X0.7125 Y0.8023 
X0.7239 Y0.7867 
X0.7343 Y0.7708 
X0.7439 Y0.7545 
X0.7525 Y0.7378 
X0.7602 Y0.7208 
X0.7671 Y0.7034 
X0.7730 Y0.6856 
X0.7780 Y0.6675 
X0.7821 Y0.6490 
G0  
Z0.2000
G0 X1.4881 Y0.7718

G1   F47.2 Z-0.0100 
G1 X1.4196 Y0.7706 F70.9  
X1.3175 Y0.7693 
X1.2469  
X1.2271 Y0.7684 
X1.2080 Y0.7657 
X1.1897 Y0.7612 
X1.1722 Y0.7548 
X1.1553 Y0.7466 
X1.1393 Y0.7367 
X1.1239 Y0.7249 
X1.1093 Y0.7113 
X1.0960 Y0.6964 
X1.0845 Y0.6808 
X1.0747 Y0.6646 
X1.0667 Y0.6476 
X1.0605 Y0.6299 
X1.0560 Y0.6116 
X1.0534 Y0.5925 
X1.0525 Y0.5727 
 Y0.3596 
X1.0515 Y0.3115 
X1.0493 Y0.2525 
X1.0461 Y0.1800 
X0.9726 Y0.1816 
X0.9097 Y0.1827 
X0.8530 Y0.1832 
 Y0.5732 
X0.8535 Y0.5931 
X0.8548 Y0.6127 
X0.8571 Y0.6319 
X0.8603 Y0.6507 
X0.8644 Y0.6692 
X0.8693 Y0.6873 
X0.8752 Y0.7050 
X0.8820 Y0.7224 
X0.8897 Y0.7393 
X0.8983 Y0.7560 
X0.9078 Y0.7722 
X0.9182 Y0.7881 
X0.9296 Y0.8035 
X0.9418 Y0.8187 
X0.9549 Y0.8334 
X0.9690 Y0.8478 
X0.9836 Y0.8615 
X0.9987 Y0.8744 
X1.0141 Y0.8864 
X1.0298 Y0.8975 
X1.0459 Y0.9077 
X1.0624 Y0.9170 
X1.0792 Y0.9254 
X1.0964 Y0.9329 
X1.1140 Y0.9396 
X1.1319 Y0.9453 
X1.1502 Y0.9502 
X1.1689 Y0.9542 
X1.1879 Y0.9573 
X1.2072 Y0.9595 
X1.2270 Y0.9608 
X1.2471 Y0.9613 
X1.4862  
X1.4871 Y0.8441 
X1.4881 Y0.7718 
G0  
Z0.2000
G0 X2.0880 Y0.5516

G1   F47.2 Z-0.0100 
G1 X2.0889 Y0.5713 F70.9  
X2.0880 Y0.5913 
X2.0853 Y0.6105 
X2.0809 Y0.6290 
X2.0747 Y0.6468 
X2.0666 Y0.6639 
X2.0568 Y0.6803 
X2.0453 Y0.6960 
X2.0319 Y0.7109 
X2.0173 Y0.7246 
X2.0020 Y0.7365 
X1.9858 Y0.7465 
X1.9690 Y0.7547 
X1.9514 Y0.7611 
X1.9331 Y0.7657 
X1.9140 Y0.7684 
X1.8941 Y0.7693 
X1.8741 Y0.7684 
X1.8549 Y0.7657 
X1.8364 Y0.7611 
X1.8188 Y0.7547 
X1.8020 Y0.7465 
X1.7859 Y0.7365 
X1.7707 Y0.7246 
X1.7563 Y0.7109 
X1.7432 Y0.6960 
X1.7318 Y0.6803 
X1.7222 Y0.6639 
X1.7143 Y0.6468 
X1.7082 Y0.6290 
X1.7038 Y0.6105 
X1.7012 Y0.5913 
X1.7003 Y0.5713 
X1.7012 Y0.5516 
X1.7038 Y0.5326 
X1.7082 Y0.5142 
X1.7144 Y0.4966 
X1.7224 Y0.4797 
X1.7321 Y0.4634 
X1.7435 Y0.4479 
X1.7568 Y0.4331 
X1.7713 Y0.4195 
X1.7866 Y0.4077 
X1.8026 Y0.3978 
X1.8194 Y0.3896 
X1.8369 Y0.3833 
X1.8552 Y0.3787 
X1.8743 Y0.3760 
X1.8941 Y0.3751 
X1.9140 Y0.3760 
X1.9331 Y0.3787 
X1.9514 Y0.3833 
X1.9690 Y0.3896 
X1.9858 Y0.3978 
X2.0020 Y0.4077 
X2.0173 Y0.4195 
X2.0319 Y0.4331 
X2.0453 Y0.4479 
X2.0568 Y0.4634 
X2.0666 Y0.4797 
X2.0747 Y0.4966 
X2.0809 Y0.5142 
X2.0853 Y0.5326 
X2.0880 Y0.5516 
G0  
Z0.2000
G0 X2.2865 Y0.5318

G1   F47.2 Z-0.0100 
G1 X2.2842 Y0.5126 F70.9  
X2.2811 Y0.4937 
X2.2770 Y0.4753 
X2.2720 Y0.4572 
X2.2661 Y0.4394 
X2.2593 Y0.4221 
X2.2516 Y0.4051 
X2.2430 Y0.3885 
X2.2335 Y0.3723 
X2.2231 Y0.3564 
X2.2118 Y0.3409 
X2.1996 Y0.3258 
X2.1864 Y0.3110 
X2.1724 Y0.2967 
X2.1577 Y0.2829 
X2.1427 Y0.2701 
X2.1273 Y0.2581 
X2.1115 Y0.2470 
X2.0954 Y0.2368 
X2.0789 Y0.2275 
X2.0620 Y0.2191 
X2.0448 Y0.2115 
X2.0273 Y0.2049 
X2.0093 Y0.1991 
X1.9910 Y0.1943 
X1.9724 Y0.1903 
X1.9534 Y0.1872 
X1.9340 Y0.1849 
X1.9142 Y0.1836 
X1.8941 Y0.1832 
X1.8740 Y0.1836 
X1.8543 Y0.1849 
X1.8349 Y0.1872 
X1.8159 Y0.1903 
X1.7973 Y0.1943 
X1.7790 Y0.1991 
X1.7611 Y0.2049 
X1.7436 Y0.2115 
X1.7264 Y0.2191 
X1.7096 Y0.2275 
X1.6931 Y0.2368 
X1.6770 Y0.2470 
X1.6613 Y0.2581 
X1.6460 Y0.2701 
X1.6310 Y0.2829 
X1.6164 Y0.2967 
X1.6024 Y0.3110 
X1.5893 Y0.3258 
X1.5771 Y0.3409 
X1.5658 Y0.3564 
X1.5554 Y0.3723 
X1.5460 Y0.3885 
X1.5374 Y0.4051 
X1.5297 Y0.4221 
X1.5230 Y0.4394 
X1.5171 Y0.4572 
X1.5121 Y0.4753 
X1.5081 Y0.4937 
X1.5049 Y0.5126 
X1.5027 Y0.5318 
X1.5013 Y0.5514 
X1.5009 Y0.5713 
X1.5013 Y0.5913 
X1.5027 Y0.6109 
X1.5049 Y0.6301 
X1.5081 Y0.6490 
X1.5121 Y0.6675 
X1.5171 Y0.6856 
X1.5230 Y0.7034 
X1.5297 Y0.7208 
X1.5374 Y0.7378 
X1.5460 Y0.7545 
X1.5554 Y0.7708 
X1.5658 Y0.7867 
X1.5771 Y0.8023 
X1.5893 Y0.8175 
X1.6024 Y0.8324 
X1.6164 Y0.8469 
X1.6310 Y0.8607 
X1.6460 Y0.8737 
X1.6613 Y0.8858 
X1.6770 Y0.8969 
X1.6931 Y0.9072 
X1.7096 Y0.9166 
X1.7264 Y0.9251 
X1.7436 Y0.9327 
X1.7611 Y0.9394 
X1.7790 Y0.9452 
X1.7973 Y0.9501 
X1.8159 Y0.9541 
X1.8349 Y0.9573 
X1.8543 Y0.9595 
X1.8740 Y0.9608 
X1.8941 Y0.9613 
X1.9142 Y0.9608 
X1.9340 Y0.9595 
X1.9534 Y0.9573 
X1.9724 Y0.9541 
X1.9910 Y0.9501 
X2.0093 Y0.9452 
X2.0273 Y0.9394 
X2.0448 Y0.9327 
X2.0620 Y0.9251 
X2.0789 Y0.9166 
X2.0954 Y0.9072 
X2.1115 Y0.8969 
X2.1273 Y0.8858 
X2.1427 Y0.8737 
X2.1577 Y0.8607 
X2.1724 Y0.8469 
X2.1864 Y0.8324 
X2.1996 Y0.8175 
X2.2118 Y0.8023 
X2.2231 Y0.7867 
X2.2335 Y0.7708 
X2.2430 Y0.7545 
X2.2516 Y0.7378 
X2.2593 Y0.7208 
X2.2661 Y0.7034 
X2.2720 Y0.6856 
X2.2770 Y0.6675 
X2.2811 Y0.6490 
X2.2842 Y0.6301 
X2.2865 Y0.6109 
X2.2879 Y0.5913 
X2.2883 Y0.5713 
X2.2879 Y0.5514 
X2.2865 Y0.5318 
G0  
Z0.2000
G0 X3.1178 Y0.1430

G1   F47.2 Z-0.0100 
G1 X3.1075 Y0.1420 F70.9  
X3.0979 Y0.1390 
X3.0892 Y0.1343 
X3.0816 Y0.1281 
X3.0754 Y0.1205 
X3.0706 Y0.1118 
X3.0677 Y0.1022 
X3.0667 Y0.0919 
X3.0677 Y0.0816 
X3.0706 Y0.0720 
X3.0753 Y0.0633 
X3.0816 Y0.0557 
X3.0892 Y0.0495 
X3.0979 Y0.0447 
X3.1075 Y0.0418 
X3.1178 Y0.0407 
X3.1281 Y0.0417 
X3.1377 Y0.0447 
X3.1464 Y0.0494 
X3.1539 Y0.0557 
X3.1602 Y0.0633 
X3.1649 Y0.0720 
X3.1679 Y0.0816 
X3.1689 Y0.0919 
X3.1679 Y0.1022 
X3.1649 Y0.1118 
X3.1602 Y0.1205 
X3.1539 Y0.1280 
X3.1464 Y0.1343 
X3.1377 Y0.1390 
X3.1281 Y0.1420 
X3.1178 Y0.1430 
G0  
Z0.2000
G0 X3.1284 Y0.4722

G1   F47.2 Z-0.0100 
G1 X3.1350 Y0.5072 F70.9  
X3.1387 Y0.5355 
X3.1414 Y0.5766 
X3.1414 Y0.5935 
X3.1402 Y0.6106 
X3.1356 Y0.6426 
X3.1307 Y0.6666 
X3.1283 Y0.6765 
X3.1362 Y0.6991 
X3.1445 Y0.7212 
X3.1532 Y0.7426 
X3.1624 Y0.7633 
X3.1719 Y0.7834 
X3.1818 Y0.8029 
X3.1922 Y0.8217 
X3.2030 Y0.8398 
X3.2142 Y0.8572 
X3.2258 Y0.8740 
X3.2379 Y0.8901 
X3.2504 Y0.9055 
X3.2634 Y0.9201 
X3.2768 Y0.9341 
X3.2907 Y0.9474 
X3.3050 Y0.9599 
X3.3198 Y0.9717 
X3.3351 Y0.9828 
X3.3508 Y0.9931 
X3.3670 Y1.0027 
X3.3837 Y1.0115 
X3.4009 Y1.0196 
X3.4186 Y1.0269 
X3.4367 Y1.0334 
X3.4554 Y1.0392 
X3.4745 Y1.0441 
X3.4942 Y1.0483 
X3.5144 Y1.0517 
X3.5350 Y1.0543 
X3.5562 Y1.0560 
X3.5780 Y1.0570 
X3.6002 Y1.0571 
X3.6227 Y1.0562 
X3.6452 Y1.0544 
X3.6676 Y1.0515 
X3.6899 Y1.0476 
X3.7120 Y1.0426 
X3.7339 Y1.0367 
X3.7556 Y1.0298 
X3.7770 Y1.0219 
X3.7980 Y1.0131 
X3.8186 Y1.0033 
X3.8388 Y0.9926 
X3.8585 Y0.9810 
X3.8777 Y0.9685 
X3.8963 Y0.9550 
X3.9143 Y0.9407 
X3.9316 Y0.9256 
X3.9483 Y0.9095 
X3.9642 Y0.8926 
X3.9793 Y0.8749 
X3.9935 Y0.8564 
X4.0069 Y0.8370 
X4.0193 Y0.8169 
X4.0308 Y0.7960 
X4.0413 Y0.7743 
X4.0507 Y0.7518 
X4.0590 Y0.7286 
X4.0661 Y0.7046 
X4.0720 Y0.6800 
X4.0767 Y0.6546 
X4.0801 Y0.6285 
X4.0822 Y0.6018 
X4.0829 Y0.5743 
X4.0822 Y0.5469 
X4.0801 Y0.5201 
X4.0767 Y0.4940 
X4.0720 Y0.4686 
X4.0661 Y0.4438 
X4.0589 Y0.4198 
X4.0506 Y0.3965 
X4.0412 Y0.3740 
X4.0307 Y0.3522 
X4.0193 Y0.3312 
X4.0068 Y0.3109 
X3.9934 Y0.2915 
X3.9791 Y0.2728 
X3.9640 Y0.2550 
X3.9481 Y0.2380 
X3.9315 Y0.2219 
X3.9141 Y0.2067 
X3.8961 Y0.1923 
X3.8775 Y0.1788 
X3.8583 Y0.1663 
X3.8386 Y0.1546 
X3.8184 Y0.1439 
X3.7978 Y0.1342 
X3.7768 Y0.1254 
X3.7554 Y0.1176 
X3.7338 Y0.1108 
X3.7119 Y0.1050 
X3.6898 Y0.1002 
X3.6675 Y0.0965 
X3.6451 Y0.0938 
X3.6227 Y0.0922 
X3.6002 Y0.0916 
X3.5790 Y0.0921 
X3.5580 Y0.0935 
X3.5371 Y0.0959 
X3.5163 Y0.0992 
X3.4958 Y0.1033 
X3.4756 Y0.1084 
X3.4556 Y0.1142 
X3.4358 Y0.1209 
X3.4165 Y0.1284 
X3.3975 Y0.1367 
X3.3788 Y0.1457 
X3.3606 Y0.1555 
X3.3428 Y0.1660 
X3.3256 Y0.1771 
X3.3088 Y0.1890 
X3.2925 Y0.2014 
X3.2768 Y0.2145 
X3.2617 Y0.2282 
X3.2472 Y0.2425 
X3.2334 Y0.2574 
X3.2202 Y0.2727 
X3.2078 Y0.2886 
X3.1960 Y0.3050 
X3.1851 Y0.3219 
X3.1749 Y0.3392 
X3.1656 Y0.3569 
X3.1571 Y0.3751 
X3.1495 Y0.3936 
X3.1428 Y0.4125 
X3.1371 Y0.4318 
X3.1323 Y0.4513 
X3.1285 Y0.4712 
X3.1284 Y0.4722 
G0  
Z0.2000
G0 X3.1286 Y0.4728

G1   F47.2 Z-0.0100 
G1 X3.1200 Y0.4443 F70.9  
X3.1099 Y0.4181 
X3.0986 Y0.3943 
X3.0866 Y0.3729 
X3.0741 Y0.3538 
X3.0617 Y0.3369 
X3.0497 Y0.3223 
X3.0384 Y0.3100 
X3.0283 Y0.2999 
X3.0130 Y0.2861 
X3.0069 Y0.2808 
 Y0.0719 
X3.0978 Y-0.0189 
X4.1026  
X4.1935 Y0.0719 
 Y0.7590 
X4.0600  
X4.0589 Y0.9510 
X4.1935  
 Y1.0767 
X4.1026 Y1.1676 
X3.0978  
X3.0069 Y1.0767 
 Y0.8650 
X3.0131 Y0.8597 
X3.0287 Y0.8460 
X3.0390 Y0.8359 
X3.0505 Y0.8236 
X3.0627 Y0.8091 
X3.0752 Y0.7923 
X3.0878 Y0.7732 
X3.0999 Y0.7518 
X3.1112 Y0.7281 
X3.1212 Y0.7019 
X3.1257 Y0.6880 
X3.1297 Y0.6734 
X3.1332 Y0.6583 
X3.1361 Y0.6425 
X3.1385 Y0.6261 
X3.1402 Y0.6091 
X3.1412 Y0.5914 
X3.1414 Y0.5732 
X3.1409 Y0.5549 
X3.1397 Y0.5372 
X3.1378 Y0.5202 
X3.1353 Y0.5038 
X3.1322 Y0.4880 
X3.1286 Y0.4728 
G0  
Z0.2000
G0 X3.1342 Y0.4955

G1   F47.2 Z-0.0100 
G1 X3.1301 Y0.4770 F70.9  
X3.1251 Y0.4589 
X3.1191 Y0.4411 
X3.1123 Y0.4237 
X3.1046 Y0.4067 
X3.0959 Y0.3900 
X3.0864 Y0.3737 
X3.0759 Y0.3577 
X3.0645 Y0.3422 
X3.0522 Y0.3270 
X3.0391 Y0.3121 
X3.0250 Y0.2976 
X3.0102 Y0.2838 
X2.9951 Y0.2708 
X2.9797 Y0.2587 
X2.9639 Y0.2475 
X2.9477 Y0.2372 
X2.9312 Y0.2279 
X2.9143 Y0.2194 
X2.8971 Y0.2118 
X2.8795 Y0.2051 
X2.8615 Y0.1993 
X2.8432 Y0.1943 
X2.8246 Y0.1903 
X2.8055 Y0.1872 
X2.7861 Y0.1850 
X2.7664 Y0.1836 
X2.7463 Y0.1832 
X2.7262 Y0.1836 
X2.7064 Y0.1850 
X2.6871 Y0.1872 
X2.6680 Y0.1903 
X2.6494 Y0.1943 
X2.6311 Y0.1993 
X2.6132 Y0.2051 
X2.5956 Y0.2118 
X2.5784 Y0.2194 
X2.5615 Y0.2279 
X2.5450 Y0.2373 
X2.5289 Y0.2476 
X2.5132 Y0.2587 
X2.4978 Y0.2708 
X2.4827 Y0.2838 
X2.4680 Y0.2976 
X2.4540 Y0.3121 
X2.4409 Y0.3270 
X2.4286 Y0.3422 
X2.4173 Y0.3578 
X2.4069 Y0.3738 
X2.3974 Y0.3901 
X2.3887 Y0.4068 
X2.3810 Y0.4238 
X2.3743 Y0.4412 
X2.3684 Y0.4590 
X2.3634 Y0.4771 
X2.3593 Y0.4957 
X2.3561 Y0.5145 
X2.3539 Y0.5338 
X2.3525 Y0.5534 
X2.3521 Y0.5733 
 Y1.1439 
X2.5539 Y1.1432 
X2.5532 Y1.0725 
X2.5525 Y0.9668 
 Y0.9613 
X2.7467  
X2.7667 Y0.9608 
X2.7865 Y0.9595 
X2.8058 Y0.9573 
X2.8248 Y0.9542 
X2.8435 Y0.9502 
X2.8618 Y0.9454 
X2.8797 Y0.9396 
X2.8973 Y0.9330 
X2.9145 Y0.9255 
X2.9314 Y0.9171 
X2.9479 Y0.9079 
X2.9641 Y0.8977 
X2.9799 Y0.8867 
X2.9953 Y0.8747 
X3.0104 Y0.8619 
X3.0251 Y0.8483 
X3.0392 Y0.8339 
X3.0524 Y0.8192 
X3.0646 Y0.8041 
X3.0760 Y0.7887 
X3.0864 Y0.7728 
X3.0960 Y0.7566 
X3.1046 Y0.7399 
X3.1124 Y0.7229 
X3.1192 Y0.7056 
X3.1251 Y0.6878 
X3.1301 Y0.6696 
X3.1342 Y0.6511 
X3.1374 Y0.6322 
X3.1396 Y0.6129 
X3.1410 Y0.5932 
X3.1414 Y0.5732 
X3.1410 Y0.5532 
X3.1396 Y0.5336 
X3.1373 Y0.5144 
X3.1342 Y0.4955 
G0  
Z0.2000
G0 X2.9366 Y0.5339

G1   F47.2 Z-0.0100 
G1 X2.9392 Y0.5532 F70.9  
X2.9401 Y0.5731 
X2.9392 Y0.5928 
X2.9366 Y0.6119 
X2.9322 Y0.6302 
X2.9260 Y0.6478 
X2.9180 Y0.6648 
X2.9083 Y0.6810 
X2.8968 Y0.6965 
X2.8836 Y0.7114 
X2.8691 Y0.7249 
X2.8538 Y0.7367 
X2.8378 Y0.7467 
X2.8210 Y0.7548 
X2.8035 Y0.7612 
X2.7852 Y0.7657 
X2.7661 Y0.7684 
X2.7463 Y0.7693 
X2.5525  
 Y0.5731 
X2.5533 Y0.5532 
X2.5560 Y0.5339 
X2.5603 Y0.5154 
X2.5665 Y0.4976 
X2.5743 Y0.4805 
X2.5840 Y0.4641 
X2.5954 Y0.4485 
X2.6085 Y0.4335 
X2.6229 Y0.4198 
X2.6381 Y0.4080 
X2.6541 Y0.3979 
X2.6709 Y0.3897 
X2.6886 Y0.3833 
X2.7070 Y0.3788 
X2.7262 Y0.3760 
X2.7463 Y0.3751 
X2.7663 Y0.3760 
X2.7855 Y0.3788 
X2.8040 Y0.3833 
X2.8216 Y0.3897 
X2.8384 Y0.3979 
X2.8544 Y0.4080 
X2.8696 Y0.4198 
X2.8841 Y0.4335 
X2.8972 Y0.4485 
X2.9086 Y0.4641 
X2.9182 Y0.4805 
X2.9261 Y0.4976 
X2.9322 Y0.5154 
X2.9366 Y0.5339 
G0  
Z0.2000
G0 X3.1539 Y1.0207

G1   F47.2 Z-0.0100 
G1 X3.1602 Y1.0282 F70.9  
X3.1649 Y1.0369 
X3.1679 Y1.0465 
X3.1689 Y1.0568 
X3.1679 Y1.0671 
X3.1649 Y1.0767 
X3.1602 Y1.0854 
X3.1539 Y1.0930 
X3.1464 Y1.0992 
X3.1377 Y1.1040 
X3.1281 Y1.1069 
X3.1178 Y1.1080 
X3.1075 Y1.1069 
X3.0979 Y1.1039 
X3.0892 Y1.0992 
X3.0816 Y1.0930 
X3.0754 Y1.0854 
X3.0706 Y1.0767 
X3.0677 Y1.0671 
X3.0666 Y1.0568 
X3.0677 Y1.0465 
X3.0706 Y1.0369 
X3.0754 Y1.0282 
X3.0816 Y1.0206 
X3.0892 Y1.0144 
X3.0979 Y1.0097 
X3.1075 Y1.0067 
X3.1178 Y1.0057 
X3.1281 Y1.0067 
X3.1377 Y1.0097 
X3.1464 Y1.0144 
X3.1539 Y1.0207 
G0  
Z0.2000
G0 X3.3776 Y0.8064

G1   F47.2 Z-0.0100 
G1 X3.4246 Y0.7593 F70.9  
G0  
Z0.2000
G0 X3.4250 Y0.8068

G1   F47.2 Z-0.0100 
G1 X3.4200 Y0.8110 F70.9  
X3.4143 Y0.8141 
X3.4079 Y0.8161 
X3.4010 Y0.8168 
X3.3942 Y0.8161 
X3.3878 Y0.8141 
X3.3821 Y0.8110 
X3.3771 Y0.8068 
X3.3729 Y0.8018 
X3.3698 Y0.7960 
X3.3678 Y0.7897 
X3.3671 Y0.7828 
X3.3678 Y0.7760 
X3.3698 Y0.7697 
X3.3729 Y0.7639 
X3.3771 Y0.7589 
X3.3821 Y0.7548 
X3.3878 Y0.7516 
X3.3942 Y0.7497 
X3.4010 Y0.7490 
X3.4079 Y0.7497 
X3.4143 Y0.7516 
X3.4200 Y0.7548 
X3.4250 Y0.7589 
X3.4292 Y0.7639 
X3.4323 Y0.7697 
X3.4343 Y0.7760 
X3.4349 Y0.7828 
X3.4343 Y0.7897 
X3.4323 Y0.7960 
X3.4292 Y0.8018 
X3.4250 Y0.8068 
G0  
Z0.2000
G1 X3.4251 Y0.8069 F47.2 Z-0.0100 
G1 X3.3770 Y0.7588 F70.9  
G0  
Z0.2000
G1   F47.2 Z-0.0100 
G1 X3.4251 Y0.8069 F70.9  
G0  
Z0.2000
G0 X3.4246 Y0.7593

G1   F47.2 Z-0.0100 
G1 X3.3776 Y0.8064 F70.9  
G0  
Z0.2000
G0 X3.4741 Y0.7246

G1   F47.2 Z-0.0100 
G1 X3.4597 Y0.7109 F70.9  
X3.4466 Y0.6960 
X3.4352 Y0.6803 
X3.4255 Y0.6639 
X3.4177 Y0.6468 
X3.4115 Y0.6290 
X3.4072 Y0.6105 
X3.4045 Y0.5913 
X3.4037 Y0.5713 
X3.4045 Y0.5516 
X3.4072 Y0.5326 
X3.4116 Y0.5142 
X3.4178 Y0.4966 
X3.4257 Y0.4797 
X3.4354 Y0.4634 
X3.4469 Y0.4479 
X3.4601 Y0.4331 
X3.4746 Y0.4195 
X3.4899 Y0.4077 
X3.5059 Y0.3978 
X3.5227 Y0.3896 
X3.5403 Y0.3833 
X3.5586 Y0.3787 
X3.5776 Y0.3760 
X3.5975 Y0.3751 
X3.6173 Y0.3760 
X3.6364 Y0.3787 
X3.6548 Y0.3833 
X3.6724 Y0.3896 
X3.6892 Y0.3978 
X3.7053 Y0.4077 
X3.7207 Y0.4195 
X3.7353 Y0.4331 
X3.7486 Y0.4479 
X3.7602 Y0.4634 
X3.7700 Y0.4797 
X3.7780 Y0.4966 
X3.7842 Y0.5142 
X3.7887 Y0.5326 
X3.7913 Y0.5516 
X3.7922 Y0.5713 
X3.7913 Y0.5913 
X3.7886 Y0.6105 
X3.7842 Y0.6290 
X3.7780 Y0.6468 
X3.7700 Y0.6639 
X3.7602 Y0.6803 
X3.7486 Y0.6960 
X3.7353 Y0.7109 
X3.7206 Y0.7246 
X3.7053 Y0.7365 
X3.6892 Y0.7465 
X3.6723 Y0.7547 
X3.6548 Y0.7611 
X3.6364 Y0.7656 
X3.6173 Y0.7684 
X3.5975 Y0.7693 
X3.5774 Y0.7684 
X3.5582 Y0.7657 
X3.5398 Y0.7611 
X3.5221 Y0.7547 
X3.5053 Y0.7465 
X3.4893 Y0.7365 
X3.4741 Y0.7246 
G0  
Z0.2000
G0 X3.5251 Y0.6654

G1   F47.2 Z-0.0100 
G1 X3.5168 Y0.6578 F70.9  
X3.5091 Y0.6494 
X3.5023 Y0.6403 
X3.4964 Y0.6306 
X3.4914 Y0.6203 
X3.4875 Y0.6095 
X3.4845 Y0.5981 
X3.4827 Y0.5864 
X3.4821 Y0.5744 
X3.4827 Y0.5623 
X3.4845 Y0.5506 
X3.4875 Y0.5393 
X3.4914 Y0.5284 
X3.4964 Y0.5181 
X3.5023 Y0.5084 
X3.5091 Y0.4993 
X3.5167 Y0.4909 
X3.5251 Y0.4833 
X3.5342 Y0.4765 
X3.5440 Y0.4706 
X3.5543 Y0.4656 
X3.5651 Y0.4616 
X3.5764 Y0.4587 
X3.5882 Y0.4569 
X3.6002 Y0.4563 
X3.6123 Y0.4569 
X3.6240 Y0.4587 
X3.6353 Y0.4616 
X3.6462 Y0.4656 
X3.6565 Y0.4706 
X3.6662 Y0.4765 
X3.6753 Y0.4833 
X3.6837 Y0.4909 
X3.6913 Y0.4993 
X3.6981 Y0.5084 
X3.7040 Y0.5181 
X3.7090 Y0.5284 
X3.7129 Y0.5392 
X3.7159 Y0.5506 
X3.7176 Y0.5623 
X3.7182 Y0.5743 
X3.7176 Y0.5864 
X3.7158 Y0.5981 
X3.7129 Y0.6094 
X3.7090 Y0.6203 
X3.7040 Y0.6306 
X3.6981 Y0.6403 
X3.6913 Y0.6494 
X3.6837 Y0.6578 
X3.6753 Y0.6654 
X3.6662 Y0.6722 
X3.6565 Y0.6781 
X3.6461 Y0.6831 
X3.6353 Y0.6871 
X3.6240 Y0.6900 
X3.6123 Y0.6918 
X3.6002 Y0.6924 
X3.5882 Y0.6918 
X3.5764 Y0.6900 
X3.5651 Y0.6871 
X3.5543 Y0.6831 
X3.5440 Y0.6781 
X3.5342 Y0.6722 
X3.5251 Y0.6654 
G0  
Z0.2000
G0 X3.4251 Y0.3843

G1   F47.2 Z-0.0100 
G1 X3.3770 Y0.3363 F70.9  
G0  
Z0.2000
G0 X3.3776 Y0.3838

G1   F47.2 Z-0.0100 
G1 X3.4246 Y0.3367 F70.9  
G0  
Z0.2000
G0 X3.4250 Y0.3842

G1   F47.2 Z-0.0100 
G1 X3.4200 Y0.3884 F70.9  
X3.4142 Y0.3915 
X3.4079 Y0.3935 
X3.4010 Y0.3941 
X3.3942 Y0.3935 
X3.3878 Y0.3915 
X3.3821 Y0.3884 
X3.3771 Y0.3842 
X3.3729 Y0.3792 
X3.3698 Y0.3734 
X3.3678 Y0.3671 
X3.3671 Y0.3602 
X3.3678 Y0.3534 
X3.3698 Y0.3470 
X3.3729 Y0.3413 
X3.3770 Y0.3362 
X3.3821 Y0.3321 
X3.3878 Y0.3290 
X3.3942 Y0.3270 
X3.4010 Y0.3263 
X3.4079 Y0.3270 
X3.4142 Y0.3290 
X3.4200 Y0.3321 
X3.4250 Y0.3363 
X3.4292 Y0.3413 
X3.4323 Y0.3471 
X3.4343 Y0.3534 
X3.4350 Y0.3603 
X3.4343 Y0.3671 
X3.4323 Y0.3734 
X3.4292 Y0.3792 
X3.4250 Y0.3842 
G0  
Z0.2000
G0 X3.2046 Y0.5913

G1   F47.2 Z-0.0100 
G1 X3.2060 Y0.6109 F70.9  
X3.2083 Y0.6301 
X3.2114 Y0.6490 
X3.2155 Y0.6675 
X3.2204 Y0.6856 
X3.2263 Y0.7034 
X3.2331 Y0.7208 
X3.2408 Y0.7378 
X3.2493 Y0.7545 
X3.2588 Y0.7708 
X3.2692 Y0.7868 
X3.2805 Y0.8023 
X3.2926 Y0.8176 
X3.3057 Y0.8324 
X3.3197 Y0.8469 
X3.3343 Y0.8608 
X3.3493 Y0.8737 
X3.3647 Y0.8858 
X3.3804 Y0.8969 
X3.3965 Y0.9072 
X3.4129 Y0.9166 
X3.4297 Y0.9251 
X3.4469 Y0.9327 
X3.4644 Y0.9394 
X3.4824 Y0.9452 
X3.5006 Y0.9501 
X3.5193 Y0.9541 
X3.5383 Y0.9573 
X3.5576 Y0.9595 
X3.5774 Y0.9608 
X3.5975 Y0.9613 
X3.6176 Y0.9608 
X3.6373 Y0.9595 
X3.6567 Y0.9573 
X3.6757 Y0.9541 
X3.6944 Y0.9501 
X3.7127 Y0.9452 
X3.7306 Y0.9394 
X3.7482 Y0.9327 
X3.7654 Y0.9251 
X3.7822 Y0.9166 
X3.7987 Y0.9072 
X3.8148 Y0.8969 
X3.8306 Y0.8858 
X3.8460 Y0.8737 
X3.8610 Y0.8607 
X3.8757 Y0.8469 
X3.8897 Y0.8324 
X3.9029 Y0.8176 
X3.9151 Y0.8023 
X3.9264 Y0.7867 
X3.9368 Y0.7708 
X3.9463 Y0.7545 
X3.9549 Y0.7378 
X3.9626 Y0.7208 
X3.9694 Y0.7034 
X3.9753 Y0.6856 
X3.9803 Y0.6675 
X3.9844 Y0.6490 
X3.9876 Y0.6301 
X3.9898 Y0.6109 
X3.9912 Y0.5913 
X3.9917 Y0.5713 
X3.9912 Y0.5514 
X3.9898 Y0.5318 
X3.9876 Y0.5126 
X3.9844 Y0.4937 
X3.9803 Y0.4752 
X3.9753 Y0.4571 
X3.9695 Y0.4394 
X3.9627 Y0.4221 
X3.9550 Y0.4051 
X3.9464 Y0.3885 
X3.9368 Y0.3723 
X3.9264 Y0.3564 
X3.9151 Y0.3409 
X3.9029 Y0.3258 
X3.8897 Y0.3111 
X3.8757 Y0.2967 
X3.8610 Y0.2829 
X3.8460 Y0.2701 
X3.8306 Y0.2581 
X3.8148 Y0.2470 
X3.7987 Y0.2368 
X3.7822 Y0.2275 
X3.7653 Y0.2191 
X3.7481 Y0.2116 
X3.7306 Y0.2049 
X3.7127 Y0.1991 
X3.6944 Y0.1943 
X3.6757 Y0.1903 
X3.6567 Y0.1872 
X3.6373 Y0.1849 
X3.6176 Y0.1836 
X3.5975 Y0.1832 
X3.5774 Y0.1836 
X3.5576 Y0.1849 
X3.5383 Y0.1872 
X3.5193 Y0.1903 
X3.5006 Y0.1943 
X3.4824 Y0.1991 
X3.4644 Y0.2049 
X3.4469 Y0.2115 
X3.4297 Y0.2191 
X3.4129 Y0.2275 
X3.3965 Y0.2368 
X3.3804 Y0.2470 
X3.3647 Y0.2581 
X3.3493 Y0.2701 
X3.3343 Y0.2829 
X3.3197 Y0.2967 
X3.3057 Y0.3110 
X3.2927 Y0.3258 
X3.2805 Y0.3409 
X3.2692 Y0.3564 
X3.2588 Y0.3722 
X3.2493 Y0.3885 
X3.2407 Y0.4051 
X3.2331 Y0.4221 
X3.2263 Y0.4394 
X3.2204 Y0.4572 
X3.2155 Y0.4753 
X3.2114 Y0.4937 
X3.2083 Y0.5126 
X3.2060 Y0.5318 
X3.2046 Y0.5514 
X3.2042 Y0.5713 
X3.2046 Y0.5913 
G0  
Z0.2000
G0 X3.3770 Y0.3363

G1   F47.2 Z-0.0100 
G1 X3.4251 Y0.3843 F70.9  
G0  
Z0.2000
G0 X3.4246 Y0.3367

G1   F47.2 Z-0.0100 
G1 X3.3776 Y0.3838 F70.9  
G0  
Z0.2000
G0 X3.7777 Y0.3363

G1   F47.2 Z-0.0100 
G1 X3.8258 Y0.3843 F70.9  
G0  
Z0.2000
G0 X3.8253 Y0.3367

G1   F47.2 Z-0.0100 
G1 X3.7782 Y0.3838 F70.9  
G0  
Z0.2000
G1   F47.2 Z-0.0100 
G1 X3.8253 Y0.3367 F70.9  
G0  
Z0.2000
G0 X3.8257 Y0.3842

G1   F47.2 Z-0.0100 
G1 X3.8207 Y0.3884 F70.9  
X3.8149 Y0.3915 
X3.8086 Y0.3935 
X3.8017 Y0.3941 
X3.7949 Y0.3935 
X3.7885 Y0.3915 
X3.7828 Y0.3884 
X3.7778 Y0.3842 
X3.7736 Y0.3792 
X3.7705 Y0.3735 
X3.7685 Y0.3671 
X3.7678 Y0.3603 
X3.7685 Y0.3534 
X3.7705 Y0.3470 
X3.7736 Y0.3413 
X3.7777 Y0.3362 
X3.7828 Y0.3321 
X3.7885 Y0.3290 
X3.7949 Y0.3270 
X3.8017 Y0.3263 
X3.8086 Y0.3270 
X3.8149 Y0.3290 
X3.8207 Y0.3321 
X3.8257 Y0.3363 
X3.8298 Y0.3413 
X3.8330 Y0.3470 
X3.8350 Y0.3534 
X3.8357 Y0.3603 
X3.8350 Y0.3671 
X3.8330 Y0.3734 
X3.8299 Y0.3792 
X3.8257 Y0.3842 
G0  
Z0.2000
G1 X3.8258 Y0.3843 F47.2 Z-0.0100 
G1 X3.7777 Y0.3363 F70.9  
G0  
Z0.2000
G0 X3.7777 Y0.7589

G1   F47.2 Z-0.0100 
G1 X3.8258 Y0.8069 F70.9  
G0  
Z0.2000
G0 X3.8253 Y0.7593

G1   F47.2 Z-0.0100 
G1 X3.7782 Y0.8064 F70.9  
G0  
Z0.2000
G1   F47.2 Z-0.0100 
G1 X3.8253 Y0.7593 F70.9  
G0  
Z0.2000
G0 X3.8257 Y0.8068

G1   F47.2 Z-0.0100 
G1 X3.8207 Y0.8109 F70.9  
X3.8149 Y0.8141 
X3.8086 Y0.8160 
X3.8017 Y0.8167 
X3.7949 Y0.8160 
X3.7885 Y0.8141 
X3.7828 Y0.8110 
X3.7778 Y0.8068 
X3.7736 Y0.8018 
X3.7705 Y0.7961 
X3.7685 Y0.7897 
X3.7678 Y0.7829 
X3.7685 Y0.7760 
X3.7705 Y0.7697 
X3.7736 Y0.7639 
X3.7778 Y0.7589 
X3.7828 Y0.7547 
X3.7886 Y0.7516 
X3.7949 Y0.7496 
X3.8018 Y0.7489 
X3.8086 Y0.7496 
X3.8149 Y0.7516 
X3.8207 Y0.7547 
X3.8257 Y0.7589 
X3.8298 Y0.7639 
X3.8330 Y0.7697 
X3.8350 Y0.7760 
X3.8357 Y0.7829 
X3.8350 Y0.7897 
X3.8330 Y0.7960 
X3.8298 Y0.8018 
X3.8257 Y0.8068 
G0  
Z0.2000
G1 X3.8258 Y0.8069 F47.2 Z-0.0100 
G1 X3.7777 Y0.7589 F70.9  
G0  
Z0.2000
G0 X4.0403 Y1.0282

G1   F47.2 Z-0.0100 
G1 X4.0465 Y1.0206 F70.9  
X4.0541 Y1.0144 
X4.0628 Y1.0097 
X4.0724 Y1.0067 
X4.0827 Y1.0057 
X4.0930 Y1.0067 
X4.1026 Y1.0097 
X4.1113 Y1.0144 
X4.1188 Y1.0206 
X4.1251 Y1.0282 
X4.1298 Y1.0369 
X4.1328 Y1.0465 
X4.1338 Y1.0568 
X4.1328 Y1.0671 
X4.1298 Y1.0767 
X4.1251 Y1.0854 
X4.1188 Y1.0930 
X4.1113 Y1.0992 
X4.1026 Y1.1039 
X4.0930 Y1.1069 
X4.0827 Y1.1080 
X4.0724 Y1.1069 
X4.0628 Y1.1039 
X4.0541 Y1.0992 
X4.0465 Y1.0930 
X4.0403 Y1.0854 
X4.0355 Y1.0767 
X4.0326 Y1.0671 
X4.0315 Y1.0568 
X4.0326 Y1.0465 
X4.0355 Y1.0369 
X4.0403 Y1.0282 
G0  
Z0.2000
G0 X4.0827 Y0.1430

G1   F47.2 Z-0.0100 
G1 X4.0724 Y0.1420 F70.9  
X4.0628 Y0.1390 
X4.0541 Y0.1343 
X4.0465 Y0.1280 
X4.0403 Y0.1205 
X4.0355 Y0.1118 
X4.0326 Y0.1022 
X4.0315 Y0.0919 
X4.0326 Y0.0816 
X4.0355 Y0.0720 
X4.0403 Y0.0633 
X4.0465 Y0.0557 
X4.0541 Y0.0494 
X4.0628 Y0.0447 
X4.0724 Y0.0417 
X4.0827 Y0.0407 
X4.0930 Y0.0417 
X4.1026 Y0.0447 
X4.1113 Y0.0494 
X4.1188 Y0.0557 
X4.1251 Y0.0633 
X4.1298 Y0.0720 
X4.1328 Y0.0816 
X4.1338 Y0.0919 
X4.1328 Y0.1022 
X4.1298 Y0.1118 
X4.1251 Y0.1205 
X4.1188 Y0.1280 
X4.1113 Y0.1343 
X4.1026 Y0.1390 
X4.0930 Y0.1420 
X4.0827 Y0.1430 
G0  
Z0.2000
G0 X4.5470 Y0.1832

G1   F47.2 Z-0.0100 
G1 X4.3499 Y0.1873 F70.9  
X4.3475 Y0.3599 
 Y0.7590 
X4.0600  
X4.0589 Y0.9510 
X4.8397 Y0.9510 
X4.8387 Y0.8352 
X4.8377 Y0.7643 
X4.7711 Y0.7617 
X4.7164 Y0.7599 
X4.6709 Y0.7590 
X4.5470  
 Y0.1832 
G0  
Z0.2000
G0 X5.0813 

G1   F47.2 Z-0.0100 
G1 X4.8789 Y0.1881 F70.9  
X4.8819 Y0.3599 
 Y0.9613 
X5.0781 Y0.9622 
X5.0813 Y0.7846 
 Y0.1832 
G0  
Z0.2000
G0 X5.1614 

G1   F47.2 Z-0.0100 
G1 X5.4081  F70.9  
X5.5812 Y0.4470 
X5.7494 Y0.1832 
X6.0000 Y0.1817 
X5.7189 Y0.5887 
X5.9983 Y0.9507 
X5.7468 Y0.9448 
X5.5891 Y0.7461 
X5.4081 Y0.9510 
X5.1614  
X5.4435 Y0.5848 
X5.1614 Y0.1832 
G0  
Z0.2000
G0 Z0.2000
G28
M30
%
